X: 1
T: The Cliffs Of Moher
R: jig
M: 6/8
L: 1/8
K: Edor
Bee dee|Bee dBA|F2D A,DD|FED FGA|
Bee dee|Bee dBA|F2D A,DD|FED E3:|
|:~B3 BAF|BAF AFE|F2D A,DD|FED FGA|
~B3 BAF|BdB AFE|F2D A,DD|FED E3:|


Tune 1390	Setting 14753

